X: 1
T: Neil Gerroir   #2
C: Brenda Stubbert
R: jig
S: Fiddle Hell Online 2021-5-18 Wendy McIsaac workshop handout
Z: 2021 John Chambers <jc:trillian.mit.edu>
M: 6/8
L: 1/8
K: G	% and D
Bc !segno!\
|: "G"dBd "C"cge | "G"dBG GFG | "D7"AFD cBA |\
[1,3 "G"Bcd "C"cde :|2,4 "G"G3 "(A7)"G :| [K:D]
|: FG !segno!|\
"D"AFA "A7"Gag | "D"fed dcd |\
[1,3 "A7"ecA gfe | "D(Bm)"fdB "A7"A :|\
[2 "A7"efg B2c | "D"d3 d :|\
[4 "A7"efg B2c | "D"d3 "D7"=c |]
